X:2789
T:Cedars of Lebanon, The
C:Sean Ryan
R:reel
Z:id:hn-reel-356
M:C|
K:D
EA,~A,2 A,CEC|D2FA dcde|fd~d2 AFDF|GEED EGFG|
EA,~A,2 A,CEC|D2FA dcde|fd~d2 AFDF|1 GBAG FDDF:|2 GBAG FD~D2||
|:dcde fd~d2|Adfg a2gf|edef gfga|bgaf gece|
d2de fd~d2|Adfd AFDF|GFGA BcdB|1 AFGE FD~D2:|2 AFGE FDDF||
